X:1
T:65
L:1/8
M:3/4
K:A
V:1 treble nm="Piano" snm="Pno."
V:1
!mf! (AE/F/ E3 C | cc A/c/ B3) | (FA/E/ F B2 A/F/ | EB,/C/ E2) z (A/F/ | B>!>!B- Be z B | %5
 c/>d/c/B/ F3 F) | (3:2:2z (^G(3:2:1F EB,/C/ EE- | E2) z2 z (A | F/>A/F/E/ C/E/B/c/ E2 | %9
 z A F/>A/F/E/ c/e/B/c/ | A4) z2 |] %11

